!!!COM: Bach, Johann Sebastian
!!!OCL: Ludwig Erk
!!!XEN: J.S. Bach Chorale Harmonizations
!!!OTL: Vater unser im Himmelreich
!!!ONM: No. 110
!!!PDT: 1850, 1865
!!!SCT: BWV 454
!!!YEC: Copyright 1994, David Huron
!!!YEM: Rights to all derivative electronic formats reserved.
**kern	**kern	**kern	**kern
! bass	! tenor	! alto	! soprano
*M4/4	*M4/4	*M4/4	*M4/4
*c:	*c:	*c:	*c:
4C	4c	4e-	4g
=1	=1	=1	=1
4BB	4G	4d	4g
4C	4G	4c	4e-
4A-	4c	4c	4f
4E-	4c	4e-	4g
=2	=2	=2	=2
4G	4G	4c	4e-
4GG	4G	4B	4d
4C	4E-	4G	4c
4c	4c	4e-	4g
=3	=3	=3	=3
4G	4B-	4e-	4g
4B-	4B-	4d	4f
4D	4B-	4f	4b-
4E-	4B-	4e-	4g
=4	=4	=4	=4
4A-	4c	4c	4e-
4AA-	4A-	4c	4f
4GG	4D	4B-	4g
4C	4c	4e-	4g
=5	=5	=5	=5
4G	4B-	4d	4b-
4F	4A-	4e-	4cc
4E-	4G	4g	4ee-
4F	4A	4f	4dd
=6	=6	=6	=6
4A-	4c	4e-	4cc
4G	4d	4g	4b
4C	4e-	4g	4cc
4F	4A	4f	4cc
=7	=7	=7	=7
4B-	4B-	4f	4dd
4A	4c	4f#	4cc
4G	4d	4g	4b-
4C	4e-	4g	4a
=8	=8	=8	=8
4E-	4d	4g	4g
4D	4c	4f#	4a
4GG	4B	4d	4g
4F	4A	4f	4cc
=9	=9	=9	=9
4D	4B-	4f	4b-
4C	4c	4e-	4a
4BB-	4F	4d	4b-
4C	4E-	4e-	4g
=10	=10	=10	=10
4AA-	4E-	4c	4g
4BB-	4B-	4d	4f
4E-	4G	4B-	4e-
4E	4c	4c	4g
=11	=11	=11	=11
4F	4c	4f	4a-
4G	4B	4e-	4g
4A-	4c	4c	4e-
4F	4A-	4d	4f
=12	=12	=12	=12
4G	4G	4B	4e-
4GG	4G	4c	4d
4C	4E	4G	4c
====	====	====	====
*-	*-	*-	*-
!!!CDT: 1685/3//-1750/7/28
!!!OCY: Deutschland
!!!ODT: <1750
!!!PDT: 1784/-1787/
!!!AFR: chorale harmonization; four-part hymn
!!!AST: homophony
!!!AMT: simple quadruple
!!!SCA: Bach-Werke-Verzeichnis
!!!YOR: Ludwig Erk, Peters Editions of 1850, 1865; revised in light of
!!!YOR: Friedrich Smend, Peters Edition of 1932 & Albert Riemenschneider, 1941.
!!!AIN: vox
!!!EEV: 1.0
!!!RDT: 1987 September
!!!YER: 1995 March 1
!!!VTS: 
